!!!COM: Corelli, Arcangelo
!!!OTL: Sonate a tre [in a]
!!!XEN: Trio Sonata Opus 1, No. 4
!!!OPS: Opus 1
!!!ONM: No. 4
!!!OMV: Movement 3.
!!!YEC: Copyright 1994, Center for Computer Assisted Research in the Humanities
!!!YEM: Rights to all derivative electronic formats reserved.
!!!YEM: Refer to licensing agreement for further details.
!! For the following instrumentation: Violino I & II, Violone/Archlute,
!!    and Organo.
!! Allegro.
**kern	**kern	**kern	**kern
*ICklav	*ICstr	*ICstr	*ICstr
*Iorgan	*Icello	*Ivioln	*Ivioln
*	*Iarchl	*	*
!Organo	!Violone	!Violin 2	!Violin 1
!	! or	!	!
!	!Archlute	!	!
*>[A,A]	*>[A,A]	*>[A,A]	*>[A,A]
*>A	*>A	*>A	*>A
*clefG2	*clefF4	*clefG2	*clefG2
*k[]	*k[]	*k[]	*k[]
*a:	*a:	*a:	*a:
*M4/4	*M4/4	*M4/4	*M4/4
*MM60	*MM60	*MM60	*MM60
=1-	=1-	=1-	=1-
4aa\	1r	1r	4aa\
16r	.	.	16r
16aa\LL	.	.	16aa\LL
16gg\	.	.	16gg\
16ff\JJ	.	.	16ff\JJ
8ee\L	.	.	8ee\L
16dd\L	.	.	(16dd\L
16cc\JJ	.	.	16cc\JJ)
8dd\L	.	.	8dd\L
8ee\J	.	.	8ee\J
=2	=2	=2	=2
16a/LL	1r	2r	16a/LL
16b/	.	.	16b/
16a/	.	.	16a/
16b/JJ	.	.	16b/JJ
16cc\LL	.	.	16cc\LL
16dd\	.	.	16dd\
16cc\	.	.	16cc\
16dd\JJ	.	.	16dd\JJ
4ee\	.	4ee\	8ee\L
.	.	.	8b\J
16r	.	16r	[4ee\
16ee\LL	.	16ee\LL	.
16dd\	.	16dd\	.
16cc\JJ	.	16cc\JJ	.
=3	=3	=3	=3
8b/L	1r	8b/L	4.ee\]
16a/L	.	(16a/L	.
16g/JJ	.	16g/JJ)	.
8a/L	.	8a/L	.
8b/J	.	8b/J	8dd#\
8e/L	.	8e/L	8ee/L
8e/J	.	8g#/J	8e/J
16f#/LL	.	16a/LL	16f#/LL
16g#/	.	16b/	16g#/
16f#/	.	16a/	16f#/
16g#/JJ	.	16b/JJ	16g#/JJ
*clefF4	*	*	*
=4	=4	=4	=4
4A\	4A\	16cc\LL	4a/
.	.	16ee\	.
.	.	16ff#\	.
.	.	16gg#\JJ	.
16r	16r	8aa\L	16r
16A\LL	16A\LL	.	16cc\LL
16G\	16G\	8aa\J	16b\
16F\JJ	16F\JJ	.	16a\JJ
8E\L	8E\L	4.aa\	8b\L
(16D\L	(16D\L	.	8cc\J
16C\JJ)	16C\JJ)	.	.
8D\L	8D\L	.	8.b\L
8E\J	8E\J	8gg#\	.
.	.	.	16b\Jk
=5	=5	=5	=5
4.AA/	4AA/	4aa\	16a\LL
.	.	.	16cc\
.	.	.	16ff\
.	.	.	16ee\JJ
.	16r	16r	4ff\
.	16A\LL	16cc\LL	.
8F\	16G\	16b\	.
.	16F\JJ	16a\JJ	.
4.G\	4G\	4b\	16r
.	.	.	16b\LL
.	.	.	16ee\
.	.	.	16dd\JJ
.	16r	16r	4ee\
.	16G\LL	16b/LL	.
8E\	16F\	16a/	.
.	16E\JJ	16g#/JJ	.
=6	=6	=6	=6
2F\	4.F\	4.a/	16r
.	.	.	16ee\LL
.	.	.	16dd\
.	.	.	16cc\JJ
.	.	.	8.dd\L
.	8F\	8a/	.
.	.	.	16ee\Jk
4E\	4E\	16g#\LL	4ee\
.	.	16b\	.
.	.	16cc#\	.
.	.	16dd#\JJ	.
*clefG2	*	*	*
16r	4r	16ee\LL	16r
16ee\LL	.	16gg\	16ee\LL
16dd\	.	16ff#\	16dd\
16cc\JJ	.	16ee\JJ	16cc\JJ
=7	=7	=7	=7
8b/L	2r	8dd#\L	8b/L
16a/L	.	8ee\J	(16a/L
16g/JJ	.	.	16g/JJ)
8a/L	.	8.ee\L	8a/L
8b/J	.	.	8b/J
.	.	16dd#\Jk	.
*clefF4	*	*	*
4.E\	4.E\	4ee\	16e\LL
.	.	.	16b\
.	.	.	16cc\
.	.	.	16dd\JJ
.	.	16r	4ee\
.	.	16e/LL	.
8C/	8C/	16a/	.
.	.	16g/JJ	.
=8	=8	=8	=8
4.D\	4.D\	4f#/	16r
.	.	.	16a\LL
.	.	.	16b\
.	.	.	16cc\JJ
.	.	16r	4dd\
.	.	16f#/LL	.
8D\	8D\	16b/	.
.	.	16a/JJ	.
4E\	4E\	4g#/	16r
.	.	.	16ee\LL
.	.	.	16ff#\
.	.	.	16gg#\JJ
16r	16r	16r	8.aa\L
16A\LL	16A\LL	16cc\LL	.
16G\	16G\	16b\	.
16F\JJ	16F\JJ	16a\JJ	16a\Jk
=9	=9	=9	=9
8E\L	8E\L	8b\L	4.a/
(16D\L	(16D\L	8cc\J	.
16C\JJ)	16C\JJ)	.	.
8D\L	8D\L	8.b\L	.
8E\J	8E\J	.	8g#/
.	.	16b\Jk	.
4.AA/	4.AA/	4a/	16a\LL
.	.	.	16ee\
.	.	.	16cc\
.	.	.	16a\JJ
.	.	16r	4ff\
.	.	16cc/LL	.
8AA/	8AA/	16a/	.
.	.	16f/JJ	.
=10	=10	=10	=10
4.BB/	4.BB/	4dd\	16r
.	.	.	16ff\LL
.	.	.	16dd\
.	.	.	16b\JJ
.	.	16r	4gg\
.	.	16dd\LL	.
8GG/	8GG/	16b\	.
.	.	16g\JJ	.
4.C/	4.C/	4ee\	16r
.	.	.	16gg\LL
.	.	.	16ee\
.	.	.	16cc\JJ
.	.	16r	4aa\
.	.	16ee\LL	.
8AA/	8AA/	16cc\	.
.	.	16a\JJ	.
=11	=11	=11	=11
4.D\	4.D\	4ff\	16r
.	.	.	16aa\LL
.	.	.	16ff\
.	.	.	16dd\JJ
.	.	16r	4bb\
.	.	16ff\LL	.
8D\	8D\	16dd\	.
.	.	16b\JJ	.
4.E\	4.E\	4gg\	16r
.	.	.	16bb\LL
.	.	.	16gg\
.	.	.	16ee\JJ
.	.	16r	4ccc\
.	.	16gg\LL	.
8E\	8E\	16ee\	.
.	.	16cc\JJ	.
=12	=12	=12	=12
4AA/	4AA/	4aa\	16r
.	.	.	16ee\LL
.	.	.	16ff#\
.	.	.	16gg\JJ
8r	8r	16r	16aa\LL
.	.	16bb\LL	16gg\
8AA/	8AA/	16aa\	16ff#\
.	.	16gg\JJ	16ee\JJ
4BB/	4BB/	16ff#\LL	4dd#\
.	.	16b\	.
.	.	16cc#\	.
.	.	16dd#\JJ	.
*clefG2	*	*	*
16r	4r	16ee\LL	16r
16ee\LL	.	16gg\	16ee\LL
16dd\	.	16ff#\	16ddn\
16cc\JJ	.	16ee\JJ	16cc\JJ
=13	=13	=13	=13
8b/L	2r	8dd#\L	8b/L
16a/L	.	8ee\J	(16a/L
16g/JJ	.	.	16g/JJ)
8a/L	.	8.ee\L	8a/L
8b/J	.	.	8b/J
.	.	16dd#\Jk	.
*clefF4	*	*	*
4.E\	4.E\	16ee/LL	4e/
.	.	16e/	.
.	.	16g/	.
.	.	16b/JJ	.
.	.	4ee\	16r
.	.	.	16b\LL
8G#\	8G#\	.	16ee\
.	.	.	16dd\JJ
=14	=14	=14	=14
4A\	4A\	16r	4cc\
.	.	16a\LL	.
.	.	16cc\	.
.	.	16ee\JJ	.
8r	8r	4aa\	16r
.	.	.	16ee\LL
8C#/	8C#/	.	16aa\
.	.	.	16gg\JJ
4D\	4D\	16r	4ff\
.	.	16d/LL	.
.	.	16f/	.
.	.	16a/JJ	.
8r	8r	16dd\LL	16r
.	.	16a\	16f#/LL
8D\	8D\	16dd\	16b/
.	.	16cc\JJ	16a/JJ
=15	=15	=15	=15
4E\	4E\	4b\	16g#\LL
.	.	.	16ee\
.	.	.	16ff#\
.	.	.	16gg#\JJ
4C/	4C/	16r	16aa\LL
.	.	16a/LL	16cc\
.	.	16g/	16b\
.	.	16f/JJ	16a\JJ
8GG#/	8GG#/	8e/L	8b\L
4AA/	4AA/	(16d/L	8cc\J
.	.	16c/JJ)	.
.	.	8d/L	8.b\L
8GG#/	8GG#/	8e/J	.
.	.	.	16b\Jk
=16	=16	=16	=16
4.AA/	4.AA/	8c/L	8a\L
.	.	8A/J	8cc\J
.	.	16r	[4ff\
.	.	16a\LL	.
8AA/	8AA/	16b\	.
.	.	16cc\JJ	.
4.BB/	4.BB/	4dd\	16ff\LL]
.	.	.	16ff\
.	.	.	16ee\
.	.	.	16dd\JJ
.	.	16r	[4gg\
.	.	16b\LL	.
8BB/	8BB/	16cc\	.
.	.	16dd\JJ	.
=17	=17	=17	=17
4.C/	4.C/	4ee\	16gg\LL]
.	.	.	16gg\
.	.	.	16ff\
.	.	.	16ee\JJ
.	.	16r	4aa\
.	.	16cc\LL	.
8C/	8C/	16ff\	.
.	.	16ee\JJ	.
4.BB/	4.BB/	4dd\	8r
.	.	.	8dd\
.	.	16r	[4gg\
.	.	16b\LL	.
8BB/	8BB/	16ee\	.
.	.	16dd\JJ	.
=18	=18	=18	=18
4AA/	4AA/	4cc\	8gg\L]
.	.	.	8cc\J
4D\	4D\	16r	4ff\
.	.	16a\LL	.
.	.	16dd\	.
.	.	16cc\JJ	.
4G\	4G\	4b\	8r
.	.	.	8b\
4C/	4C/	16r	[4ee\
.	.	16g\LL	.
.	.	16cc\	.
.	.	16b\JJ	.
=19	=19	=19	=19
4F\	4F\	8a\L	4ee\]
.	.	8b\	.
4F#\	4F#\	8cc\	4ee-\
.	.	8cc\J	.
4G\	4G\	4.cc\	2dd\
4GG/	4GG/	.	.
.	.	8b\	.
=20	=20	=20	=20
4.C/	4.C/	16cc/LL	4cc\
.	.	16e/	.
.	.	16g#/	.
.	.	16e/JJ	.
.	.	4a/	16r
.	.	.	16ee\LL
8AA/	8AA/	.	16ff\
.	.	.	16ee\JJ
4BB/	4BB/	16r	4dd\
.	.	16a/LL	.
.	.	16b/	.
.	.	16a/JJ	.
4E\	4E\	4g#/	16r
.	.	.	16b\LL
.	.	.	16ee\
.	.	.	16dd\JJ
=21	=21	=21	=21
4.AA/	4.AA/	16r	4cc\
.	.	16ee\LL	.
.	.	16ff#\	.
.	.	16gg\JJ	.
.	.	16aa\LL	16r
.	.	16gg\	16bb\LL
8AA/	8AA/	16ff#\	16aa\
.	.	16ee\JJ	16gg\JJ
4BB/	4BB/	4dd#\	16ff#\LL
.	.	.	16b\
.	.	.	16cc#\
.	.	.	16dd#\JJ
16r	16r	16r	[4ee\
16e\LL	16e\LL	16gg\LL	.
16d\	16d\	16ff#\	.
16c\JJ	16c\JJ	16ee\JJ	.
=22	=22	=22	=22
8B\L	8B\L	8ff#\L	4.ee\]
(16A\L	(16A\L	8gg\J	.
16G\JJ)	16G\JJ)	.	.
8A\L	8A\L	8.ff#\L	.
8B\J	8B\J	.	8dd#\
.	.	16ff#\Jk	.
4.E\	4.E\	4ee\	16ee/LL
.	.	.	16e/
.	.	.	16g/
.	.	.	16b/JJ
.	.	16r	4ee\
.	.	16ee\LL	.
8GG#/	8GG#/	16b\	.
.	.	16dd\JJ	.
=23	=23	=23	=23
4.AA/	4.AA/	4cc\	16r
.	.	.	16A/LL
.	.	.	16c/
.	.	.	16e/JJ
.	.	16r	4a/
.	.	16aa\LL	.
8C#/	8C#/	16ee\	.
.	.	16gg\JJ	.
4.D\	4.D\	4ff\	16r
.	.	.	16d/LL
.	.	.	16f/
.	.	.	16a/JJ
.	.	16r	16dd\LL
.	.	16ee\LL	16cc\
8D\	8D\	16dd\	16b\
.	.	16cc\JJ	16a\JJ
=24	=24	=24	=24
4E\	4E\	4b\	16g#\LL
.	.	.	16ee\
.	.	.	16ff#\
.	.	.	16gg#\JJ
16r	16r	16r	2aa\
16A\LL	16A\LL	16cc\LL	.
16G\	16G\	16b\	.
16F\JJ	16F\JJ	16a\JJ	.
8E\L	8E\L	8b\L	.
(16D\L	(16D\L	8cc\J	.
16C\JJ)	16C\JJ)	.	.
8D\L	8D\L	8.b\L	8aa\L
8E\J	8E\J	.	8gg#\J
.	.	16b\Jk	.
=25	=25	=25	=25
4AA/	4AA/	4a/	8aa\L
.	.	.	8cc\J
8r	8r	16r	[4ff\
.	.	16cc\LL	.
8D\	8D\	16dd\	.
.	.	16cc\JJ	.
4G\	4G\	4b\	8ff\L]
.	.	.	8b\J
8r	8r	16r	[4ee\
.	.	16b\LL	.
8C/	8C/	16cc\	.
.	.	16b\JJ	.
=26	=26	=26	=26
4F\	4F\	4a/	8ee\L]
.	.	.	8a\J
8r	8r	16r	[4dd\
.	.	16a/LL	.
8BB/	8BB/	16b/	.
.	.	16a/JJ	.
4E\	4E\	4g#/	8dd\L]
.	.	.	8g#\J
8r	8r	16r	[4cc\
.	.	16g#/LL	.
8AA/	8AA/	16a/	.
.	.	16g#/JJ	.
=27	=27	=27	=27
8D\L	8D\L	8f#/L	2cc\]
8E\	8E\	8g#/J	.
8F\	8F\	2a/	.
8D\J	8D\J	.	.
2E\	2E\	.	2b\
.	.	4g#/	.
=28	=28	=28	=28
1AA;/	1AA;/	1a;/	1a;/
==	==	==	==
*-	*-	*-	*-
!!!CDT: 1653/2/17/-1713/1/8
!!!OCY: Italia
!!!ODE: Queen Christina Alexandra of Sweden
!!!ODT: 1681//
!!!OPC: Roma; Rome
!!!AGN: trio sonata
!!!AST: baroque, chamber
!!!AMT: simple quadruple
!!!YOR1: J. Joachim & F. Chrysander (eds.) Les Oeuvre de Arcangelo Corelli
!!!YOR2: London: Augener & Co. 1871
!!!YOY: 1871
!!!AIN: archl cello organ violn
!!!EEV: 1.1
!!!RDT: 1993 August 19
!!!YER: 1994 December 14
!!!EMD: 1996 July 9
!!!YEN: United States of America
!!!EFL: 3/4
!!!ENC: Frances Bennion & Steven Rasmussen
!!!EED: W.B. Hewlett
!!!VTS: 3481725492
